src/Pure/16/symbolic/actions/insert-image-symbolic.svg

<svg width="16" height="16" version="1.1" xmlns="http://www.w3.org/2000/svg">
 <path d="m5 12 3 4 3-4z" fill="#363636"/>
 <path d="m6.5 3-2.5 2.5v2.5h8v-2l-1.25-1.25-1.25 1.25z" color="#000000" fill="#363636" overflow="visible"/>
 <path d="m4 1c-1.108 0-2 0.892-2 2v5c0 1.108 0.892 2 2 2h8c1.108 0 2-0.892 2-2v-5c0-1.108-0.892-2-2-2h-8zm0 1h8c0.554 0 1 0.446 1 1v5c0 0.554-0.446 1-1 1h-8c-0.554 0-1-0.446-1-1v-5c0-0.554 0.446-1 1-1z" fill="#333333" stroke-linecap="round" stroke-linejoin="round" stroke-opacity=".25" stroke-width="1.0016" style="paint-order:markers stroke fill"/>
</svg>

<?xml version="1.0" encoding="UTF-8" standalone="no"?>
<svg
   width="16"
   height="16"
   version="1.1"
   id="svg3"
   sodipodi:docname="insert-image-symbolic.svg"
   inkscape:version="1.4.2 (ebf0e940d0, 2025-05-08)"
   xmlns:inkscape="http://www.inkscape.org/namespaces/inkscape"
   xmlns:sodipodi="http://sodipodi.sourceforge.net/DTD/sodipodi-0.dtd"
   xmlns="http://www.w3.org/2000/svg"
   xmlns:svg="http://www.w3.org/2000/svg">
  <defs
     id="defs3">
     <style
        id="current-color-scheme"
        type="text/css">
        .ColorScheme-Text { color:#363636; }
        .ColorScheme-NegativeText { color:#da4453; }
     </style>
  </defs>
  <sodipodi:namedview
     id="namedview3"
     pagecolor="#ffffff"
     bordercolor="#000000"
     borderopacity="0.25"
     inkscape:showpageshadow="2"
     inkscape:pageopacity="0.0"
     inkscape:pagecheckerboard="0"
     inkscape:deskcolor="#d1d1d1"
     inkscape:zoom="49.6875"
     inkscape:cx="8"
     inkscape:cy="8"
     inkscape:window-width="1920"
     inkscape:window-height="1010"
     inkscape:window-x="0"
     inkscape:window-y="0"
     inkscape:window-maximized="1"
     inkscape:current-layer="svg3" />
  <path
     id="path1"
     style="fill:currentColor"
     class="ColorScheme-Text"
     d="M 4 1 C 2.892 1 2 1.892 2 3 L 2 8 C 2 9.108 2.892 10 4 10 L 12 10 C 13.108 10 14 9.108 14 8 L 14 3 C 14 1.892 13.108 1 12 1 L 4 1 z M 4 2 L 12 2 C 12.554 2 13 2.446 13 3 L 13 8 C 13 8.554 12.554 9 12 9 L 4 9 C 3.446 9 3 8.554 3 8 L 3 3 C 3 2.446 3.446 2 4 2 z M 6.5 3 L 4 5.5 L 4 8 L 12 8 L 12 6 L 10.75 4.75 L 9.5 6 L 6.5 3 z M 5 12 L 8 16 L 11 12 L 5 12 z " />
</svg>
